X: 42
T: No_48_Arapaho_Sun-Dance_Song.krn
N: Derived from No_48_Arapaho_Sun-Dance_Song.krn
%%abc-version 2.0
%%abcx-abcm2ps-target-version 5.9.1 (29 Sep 2008)
%%abc-creator hum2abc beta
%%abcx-conversion-date 2019/03/15 08:27:55
%%humdrum-veritas 611509183
%%humdrum-veritas-data 1290995775
%%linebreak <none>
%%barnumbers 0
L: 1/8
M: 2/4
%%staves {1 2}
V: 1 clef=bass
V: 2 clef=bass
K: F
[V:1] [K:clef=bass][M:2/4]F3C | 
[V:2] [K:clef=bass][M:2/4](3G,, z G,, (3G,, z G,, | 
[V:1] F2C2 | 
[V:2] (3G,, z G,,z2 | 
[V:1] CA, A,F, | 
[V:2] z4 | 
[V:1] A,A, F, z | 
[V:2] z4 | 
[V:1] F3C | 
[V:2] z4 | 
[V:1] F2C2 | 
[V:2] z4 | 
[V:1] CA, A,F, | 
[V:2] z4 | 
[V:1] A,A, F, z ]|:  
[V:2] z4 ]|:  
[V:1] A,A, A,A,/ z/ | 
[V:2] z4 | 
[V:1] A,A, ^G,G,/ z/ | 
[V:2] z4 | 
[V:1] ^G,G, G,G,/F,/ | 
[V:2] z4 | 
[V:1] [M:3/4]A,A, F,/F,3/ C, z | 
[V:2] [M:3/4]z6 | 
[V:1] [M:2/4]F,F, F,F, | 
[V:2] [M:2/4]z4 | 
[V:1] F,F, C,C, | 
[V:2] z4 | 
[V:1] D,/C,/C, C, z | 
[V:2] z4 | 
[V:1] z4 | 
[V:2] z4 | 
[V:1] !accent!A,F, G,/F,/F,/ z/ | 
[V:2] z4 | 
[V:1] F,F, F, z :|]  
[V:2] z4 :|]  



